X:1
T:Second Piano Concerto
T:First Movement
T:Camille Saint-Saëns
T:Piano solo arrangement by Georges Bizet
%%score { ( 1 4 5 ) | ( 2 3 6 ) }
L:1/8
Q:1/4=48
M:4/4
K:Bb
V:1 treble nm="Piano"
V:4 treble 
V:5 treble 
V:2 bass 
V:3 bass 
V:6 bass 
V:1
"^Andante sostenuto" x4[I:staff +1] E,/B,/[Q:1/4=54][I:staff -1]D/^F/ G/D/C/D/ | %1
 B,/D/G/B/ d2-[Q:1/4=60] d/G/=B/d/ c2 |[M:6/4] c/G/A/c/ B2 z/ =B/d/_b/ _a2- a/c/e/a/ g2 | %3
[M:4/4] z/ d/e/c/ ^f2- f/d/e/c/ g2 |[M:5/4] g/d/e/c/ a2[Q:1/4=80] a/g/a/^f/ c'2- c'/b/c'/a/ | %5
[M:5/4][Q:1/4=92]!8va(! e''2 e'/c'/^f'- f'/e'/a'- a'/f'/c''- c''/a'/e'' | %6
[M:4/4] e''/4d''/4c''/4b'/4a'/4g'/4^f'/4e'/4!8va)! d'/4c'/4b/4a/4g/4^f/4a/4e/4f/4c/4e/4A/4c/4^F/4A/4E/4F/4C/4E/4[I:staff +1]A,/4C/4^F,/4A,/4E,/4 | %7
 ^F,/4C,/4E,/4A,,/4C,/4A,,/4^F,,/4E,,/4A,,/4C,/4E,/4^F,/4A,/4[I:staff -1]C/4E/4^F/4A/4c/4e/4^f/4a/4c'/4e'/4^f'/4a'/4[Q:1/4=60] c''/ z/4 !^![efe'] | %8
 !^![e^fe'] !^![efe'][Q:1/4=72] !^![Bdgb]/4!p! G/4B/4d/4g/4d/4B/4G/4!mp! !^!^F/4!p! G/4B/4d/4g/4d/4B/4G/4 | %9
!mp! !^!D/4!p! G/4B/4d/4g/4d/4B/4G/4!mp!!8va(! !^![d'd'']/4!8va)!!p! G/4B/4d/4g/4d/4B/4G/4 z/4!p! G/4B/4d/4g/4d/4B/4G/4!mp! !^!^F/4!p! G/4B/4d/4g/4d/4B/4G/4 | %10
!mp! !^!D/4!p! G/4B/4d/4g/4d/4B/4G/4!mp!!8va(! !^![d'd'']/4!8va)!!p! G/4B/4d/4g/4d/4B/4G/4 z/4!p! G/4B/4d/4g/4d/4B/4G/4!mp! !^!^F/4!p! G/4B/4d/4g/4d/4B/4G/4 | %11
!mp! !^!D/4!p! G/4B/4d/4g/4d/4B/4G/4!mp!!8va(! !^![d'd'']/4!8va)!!p! G/4B/4d/4g/4d/4B/4G/4 z/4!p! G/4B/4d/4g/4d/4B/4G/4!mp! !^!^F/4!p! G/4B/4d/4g/4d/4B/4G/4 | %12
!mp! !^!A/4!p! B/4d/4g/4b/4g/4d/4B/4!mp! !^!^f/4!p! g/4b/4d'/4g'/4d'/4b/4g/4!mp! !^!a/4!p! b/4d'/4g'/4b'/4g'/4d'/4b/4 | %13
[M:3/8]!mp!!8va(! (6:4:6!^!^f'/4!p!!<(! g'/4b'/4g''/4d''/4b'/4(6:4:6g'/4d'/4!8va)!b/4g/4d/4B/4(6:4:6G/4D/4[I:staff +1]B,/4G,/4D,/4B,,/4!<)! | %14
[M:4/4]!ff![I:staff -1] z2 [Bdgb]2 z2 [A^cga]2 | z2 [=c_ea=c']2 z2 [Bdb]2 | %16
[Q:1/4=80]"_accel." z [d=f=bd'] z [ce_gc'] z [fc'e'][Q:1/4=104] z [df_ad'] | %17
 z [fgd'f'] z [=egb=e'][Q:1/4=72]"_rit." z [gb^c'g'] z [bc'e'b'] || %18
[M:4/4] z2[K:bass]!fff![Q:1/4=60] D,4 [C,D,]2- | [C,D,]2 [=B,,D,]2 [_B,,D,]2 [A,,D,]2 | %20
[K:treble] [gbd'g']/[Bdg]/8G/8[Bdg]/8G/8[Bdg]/8G/8[Bdg]/8G/8[Bdg]/8G/8[Bdg]/8G/8 [Bdg]/8G/8[Bdg]/8G/8[Bdg]/8G/8[Bdg]/8G/8[Bdg]/8G/8[Bdg]/8G/8[Bdg]/8G/8[Bdg]/8G/8!ff! [Bdg]/ z/ z z2 | %21
 [dad']/[da]/8A/8[da]/8A/8[da]/8A/8[da]/8A/8[da]/8A/8[da]/8A/8 [da]/8A/8[da]/8A/8[da]/8A/8[da]/8A/8[da]/8A/8[da]/8A/8[da]/8A/8[da]/8A/8!ff! [da]/ z/ z z2 | %22
 !^![Bdb]z/>[^Fcd^f]/ !^![Gdg]z/>[D=FGd]/ !^![EGe]z/>[=B,DG=B]/ !^![CGc]z/>[EGce]/ | %23
 [DAd] z [dad']/ z/ z z4 | x2 d6- | d2 c6 | !arpeggio![B,DGB] z z2 !arpeggio![A,CD^F] z z2 | %27
[Q:1/4=54] z8 |!p! !>!g2 d2- d/B/A/B/ ^F>F | %29
{/G,C} [EG]2- [EG]-(3[EG]/[DF]/[CE]/ [B,D] z !>!D-!p!!<(!D/4G/4B/4!<)!d/4 | %30
!mp! !>![Fcef]2 [Fdf-]f/4d/4B/4G/4 [CD^F]2 [^C=EG-](3G/A/B/ | [D^FA]2!p! [cea]2 [Bg]2 [Ac^f]2 | %32
!f! [gbd'g']2 [dd']2- [dd']/[Bb]/[Aa]/[Bb]/ [^FAc^f]>[Ff] | %33
 [Gceg][e'g']-(6:4:6[e'g']/4[d'^f']/4[e'g']/4[c'e']/4[gc']/4[eg]/4(6:4:6[ce]/4[Gc]/4[EG]/4!>![EG]/4[DF]/4[CE]/4 [B,D] z !>!D-D/4!<(!G/8B/8d/8g/8b/8d'/8!<)! | %34
!f! [fc'f'] z F-!<(!F/4B/8d/8f/8b/8d'/8!<)!f'/8!f! [a=e'a'] z !>!A!<(!A/4d/8f/8a/8d'/8f'/8a'/8!<)! | %35
!f! [^c'g'^c'']/ z/ x x x/ [Bb]/ !>![Bb]!mf! [Aa]2 z/ [dd']/ | %36
 !>![dd'] [^c^c']2 z/ [cc']/ !>![cc'] [dd']2 z/ [dd']/ | %37
!mf! !>![dd']<[ee'] !>![ee']<^f !>![ee']<[dd'] !>![dd']<[cc'] | %38
 !>![cc']<[Bb] !>![=B=b]<[_a_a'] !>![aa']<[gg'] !>![Gg]<[ff'] | %39
!mp! !>![ff']/!p![ee']/[ee']/[dd']/ [dd']/[cc']/[cc']/[=B=b]/!mp! !>![dd']/!p![cc']/[cc']/[_B_b]/ [Bb]/[Aa]/[Aa]/[^F^f]/ | %40
!mp! !>![Aa]/!p![Gg]/[Gg]/[Ff]/ [Ff]/[Ee]/[Ee]/[Dd]/!mp! !>![Ff]/!p![Ee]/[Ee]/[Dd]/ [Dd]/[Cc]/[Cc]/[G,G]/ | %41
!<(! [^F,^F]/[G,G]/!mp![A,A]/[B,B]/!<)! [B,B][I:staff +1][C,G,B,C]- [C,G,B,C]!mf![I:staff -1] !>![CGBc] !>![cgbc']!f!!8va(! !>![c'g'b'c''] | %42
!mp! ^f'/g'/a'/b'/ !>![bb']!8va)![_d_d'] z!mp! !>![_DGBd]!p! !>![dgbd']!8va(! !>![d'g'b'_d''] | %43
!mf! [c'g'c'']!8va)! z !>!bc!p! !arpeggio![Acfa] z z !arpeggio![GB_eg] | %44
!p! =B/c/d/e/!<(! =B,/C/D/E/[Q:1/4=42]"^rit." =E/F/^F/G/!<)!!mf! A/!>(!.G/.=F/._E/!>)! | %45
!p! !arpeggio![F,B,D]/[Q:1/4=54]"^a tempo" z/!p! d2 A cB f>^f | [eg] z x2 z2 g>^g | %47
 [fa] g2 f !>!fe !>![egb]>c' | [^fad'] !>!e2 d !>!dc z/ GA/ | A/BAB=B/!<(! B/cBc^c/ | %50
 ^c/dcdd/ d/ee/ e/!<)!!mf!=e/!p!!>(!a/g/!>)! |!p!!<(! Tf7/2 =e/4f/4 T^f7/2 =e/4f/4 | %52
 Tg7/2!<)! ^f/4g/4!mf!!>(! c'2 c'/4b/4g/4=e/4c/4B/4A/4G/4!>)! | %53
!p! .F/.G/.A/.B/ .A/.B/.c/.d/ fe z !arpeggio![A,EFc] | %54
!pp! z/4!8va(! f'/4f''/4e''/4 d''/4c''/4b'/4a'/4 g'/4f'/4e'/4d'/4!8va)! c'/4b/4a/4b/4 c'/4b/4d'/4b/4 ^f/4d/4B/4^F/4 d/4B/4F/4D/4[K:bass] B,/4^F,/4D/4D,/4 | %55
 E,/4B,,/4G,,/4E,,/4 G,,/4B,,/4E,/4G,/4[K:treble] B,/4E/4G/4B/4 e/4g/4e/4B/4 (3!>!c'/.B/.c/ (3.g/.b/.c'/ c'/4b/4g/4=e/4c/4B/4A/4G/4 | %56
!p! F/!<(!G/A/B/ A/B/c/d/!<)!!p! fe z c | %57
 [B,DFB]/!pp![Q:1/4=60]"_Un poco animato"!8va(! f'/4[d''f'']/4 [d''f'']/4[^c''=e'']/4f'/4[=c''_e'']/4 [c''e'']/4[b'd'']/4f'/4[e'c'']/4 [e'c'']/4[d'b']/4d'/4[e'g']/4 [e'g']/4[d'f']/4 f/4[d'f']/4!8va)! [d'f']/4[^c'=e']/4f/4[=c'_e']/4 [c'e']/4[bd']/4f/4[ec']/4 [ec']/4[db]/4d/4[eg]/4 | %58
!pp! [eg]/4[df]/4 [DB]/4[Fc]/4 [DB]/4[Fc]/4[Bd]/4[ce]/4 [df]/4[ce]/4[Bd]/4[ce]/4 [df]/4[eg]/4[df]/4[ea]/4 [db]/4[fc']/4[bd']/4[c'e']/4 [d'f']/4[c'e']/4[bd']/4[fc']/4 [db]/4[fc']/4[bd']/4[c'e']/4!8va(! [d'f']/4[e'g']/4[f'a']/4[g'b']/4 | %59
 [a'c'']/ c'/4[a'c'']/4 [a'c'']/4[^g'=b']/4c'/4[=g'_b']/4 [g'b']/4[f'a']/4c'/4[bg']/4 [bg']/4[af']/4a/4[bd']/4 [bd']/4[ac']/4!8va)! c/4[ac']/4 [ac']/4[^g=b]/4c/4[=g_b]/4 [gb]/4[fa]/4c/4[Bg]/4 [Bg]/4[Af]/4A/4[Bd]/4 | %60
 [Bd]/4[Ac]/4 [Af]/4[ca]/4 [Af]/4[ca]/4[fc']/4[af']/4 [bg']/4[ge']/4[eb]/4[Bg]/4 [Af]/4[ca]/4[fc']/4[af']/4 [ge']/4[eb]/4[Bg]/4[Ge]/4 [^Fd]/4[A^f]/4[da]/4[fd']/4 [=fd']/4[da]/4[Af]/4[=Fd]/4 [Fc]/4[Af]/4[ca]/4[fc']/4 | %61
 [db]/!8va(! f'/4[d''f'']/4 [d''f'']/4[^c''=e'']/4f'/4[=c''_e'']/4 [c''e'']/4[b'd'']/4f'/4[e'c'']/4 [e'c'']/4[d'b']/4d'/4[e'g']/4 [e'g']/4[d'f']/4!8va)! f/4[d'f']/4 [d'f']/4[^c'=e']/4f/4[=c'_e']/4!<(! [c'e']/4[bd']/4f/4[ec']/4 [ec']/4[db]/4d/4[eg]/4!<)! | %62
!p! [eg]/4[df]/4 [DB]/4[Fc]/4 [DB]/4[Fc]/4[Bd]/4[ce]/4 [df]/4[ce]/4[Bd]/4[ce]/4 [df]/4[eg]/4[df]/4[e=a]/4 [db]/4[fc']/4[bd']/4[c'e']/4 [d'f']/4[c'e']/4[bd']/4[c'e']/4!8va(!!<(! [d'f']/4[e'g']/4[f'_a']/4[g'b']/4 [a'c'']/4[b'd'']/4[c''e'']/4[d''f'']/4!<)! | %63
!mp! [=b'g'']/ d'/4[b'd'']/4 [b'd'']/4[^a'^c'']/4d'/4[=a'=c'']/4 [a'c'']/4[g'b']/4d'/4[c'a']/4 [c'a']/4[=bg']/4b/4[c'e']/4 [c'e']/4[bd']/4!8va)! d/4[bd']/4 [bd']/4[^a^c']/4d/4[=a=c']/4 [ac']/4[gb]/4d/4[ca]/4 [ca]/4[=Bg]/4B/4[ce]/4 | %64
 [ce]/4[=Bd]/4 [=B,G]/4[DA]/4 [B,G]/4[DA]/4[GB]/4[Ac]/4 [Bd]/4[Ac]/4[GB]/4[Ac]/4 [Bd]/4[ce]/4[Bd]/4[d^f]/4 [Bg]/4[da]/4[g=b]/4[ac']/4 [bd']/4[ac']/4[gb]/4[ac']/4!8va(!!<(! [gb]/4[c'e']/4[d'^f']/4[e'g']/4 [f'a']/4[g'=b']/4[a'c'']/4[b'd'']/4!<)! | %65
!f! [g'c''g'']/!8va)! G,/4G/4 G/4^F/4G,/4=F/4 F/4=E/4G,/4_E/4 E/4D/4G,/4D/4 D/4C/4G,/4G/4 G/4^F/4G,/4=F/4 F/4=E/4G,/4_E/4 E/4D/4G,/4D/4 | %66
!f! D/4C/4!<(!G,/4F/4 F/4E/4C/4A/4 A/4G/4E/4d/4 d/4c/4G/4f/4 f/4e/4c/4a/4 a/4g/4e/4d'/4 d'/4c'/4g/4f'/4 f'/4e'/4c'/4!ff![gg']/4!<)! | %67
 [g_d'g']/!f! B,/4B/4 B/4A/4B,/4_A/4 A/4G/4B,/4G/4 G/4_G/4B,/4F/4 F/4E/4B,/4B/4 B/4=A/4B,/4_A/4 A/4=G/4B,/4G/4 G/4_G/4B,/4F/4 | %68
!f! F/4E/4B,/4_A/4 A/4G/4_D/4c/4 c/4B/4G/4f/4 f/4e/4B/4_a/4 a/4g/4_d/4c'/4 c'/4b/4g/4f'/4 f'/4e'/4b/4_a'/4 a'/4g'/4_d'/4!ff![bb']/4 | %69
!f! [b=d'g'b']/ x x2 x/ !>![A,DA]/4[G,G]/4 x x2 x/ | %70
 !>![A,DA]/4[G,G]/4[I:staff +1] [D,D]/4[I:staff -1][Cc]/4 [Cc]/4[B,B]/4[I:staff +1][G,B,G]/4[I:staff -1][Ee]/4 [Ee]/4[Dd]/4[I:staff +1][B,DB]/4[I:staff -1][Aa]/4 [Aa]/4[Gg]/4[I:staff +1][DGd]/4[I:staff -1][cc']/4 [cc']/4[Bb]/4[I:staff +1][GBg]/4[I:staff -1][ee']/4 [ee']/4[dd']/4[I:staff +1][Bdb]/4[I:staff -1][aa']/4 [aa']/4[gg']/4[I:staff +1][dgd']/4[I:staff -1][c'c'']/4 [c'c'']/4[bb']/4[I:staff +1][gbg']/4!8va(![I:staff -1][g'g'']/4 | %71
 [g'b'^c''g'']/!8va)![I:staff +1] [G,B,G]/4[I:staff -1][Gg]/4 [Gg]/4[^F^f]/4[I:staff +1][G,B,G]/4[I:staff -1][=F=f]/4 [Ff]/4[=E=e]/4[I:staff +1][G,B,G]/4[I:staff -1][_E_e]/4 [Ee]/4[Dd]/4[I:staff +1][G,B,G]/4[I:staff -1][Dd]/4 !>![DGd]/4[^C^c]/4[I:staff +1] [G,B,G]/4[I:staff -1][Gg]/4 [Gg]/4[^F^f]/4[I:staff +1][G,B,G]/4[I:staff -1][=F=f]/4 [Ff]/4[=E=e]/4[I:staff +1][G,B,G]/4[I:staff -1][_E_e]/4 [Ee]/4[Dd]/4[I:staff +1][G,B,G]/4[I:staff -1][Dd]/4 | %72
 !>![DGd]/4[^C^c]/4[I:staff +1] [G,B,G]/4[I:staff -1][Ff]/4 [Ff]/4[=E=e]/4[I:staff +1][B,^CB]/4[I:staff -1][Aa]/4 [Aa]/4[Gg]/4[I:staff +1][C=E^c]/4[I:staff -1][=c=c']/4 [cc']/4[Bb]/4[I:staff +1][EG=e]/4[I:staff -1][dd']/4 [dd']/4[^c^c']/4[I:staff +1][GBg]/4[I:staff -1][ff']/4 [ff']/4[e=e']/4[I:staff +1][B^cb]/4[I:staff -1][aa']/4 [aa']/4[gg']/4[I:staff +1][ce^c']/4[I:staff -1][=c'=c'']/4 [c'c'']/4[bb']/4[I:staff +1][=eg=e']/4!8va(![I:staff -1][g'^c''g'']/4!8va)! | %73
!ff! z/4 !^![D,D]/[E,E]/[^F,^F]/[A,A]/[B,B]/[=B,=B]/[Cc]/[^C^c]/[Dd]/[Ee]/[F^f]/[Aa]/!^![_B=ce_b]/[cc']/[dd']/[ee']/4 | %74
 z/4 !^![D,D]/[E,E]/[^F,^F]/[A,A]/[Cc]/[^C^c]/[Dd]/[Ee]/[F^f]/[Aa]/[=c=c']/[dd']/!^![eac'e']/[f^f']/[gg']/[aa']/4 | %75
 z/4 !^![D,D]/[^F,^F]/[A,A]/[^G,^G]/[=G,=G]/[F,F]/[A,A]/[Cc]/[=B,=B]/[_B,_B]/[A,A]/[Cc]/[Ee]/[Dd]/[^C^c]/[=C=c]/4- | %76
 [Cc]/4[Ee]/[^F^f]/[Aa]/[^G^g]/[=G=g]/[Ff]/[Aa]/[Bb]/[=B=b]/[cc']/[^c^c']/[dd']/[ee']/[=e=e']/[=f=f']/[^f^f']/4 | %77
!ff![Q:1/4=48]"^Tempo I" [gbd'g']2 [dd']2- [dd']/[Bb]/[Aa]/[Bb]/ [^FAc^f]>!8va(![f^f'] | %78
 [gc'e'g']3- [gc'e'g']/[ff']/4e'/4!>(! [g_bd']/4[b'd'']/4[g'b']/4[d'g']/4!8va)![bd']/4[gb]/4[dg]/4[Bd]/4!>)!!mp! z/4!8va(! [g'b']/4[d'g']/4[bd']/4!8va)![gb]/4[dg]/4[Bd]/4[GB]/4 | %79
 z/4!8va(! [c''e'']/4[f'c'']/4[e'f']/4[c'e']/4[fc']/4!8va)![ef]/4[ce]/4 z/4!8va(! [b'd'']/4[f'b']/4[d'f']/4[bd']/4!8va)![fb]/4[df]/4[Bd]/4 z/4!8va(! [^f'c'']/4[d'f']/4[c'd']/4!8va)![^fc']/4[df]/4[cd]/4[Ac]/4 z/4!8va(! [g'b']/4[d'g']/4[bd']/4!8va)![gb]/4[=eg]/4[^ce]/4[Bc]/4 | %80
!mf! [Ad^f]/4!mp!!<(! z/8 E/4D/4^C/4D/4^F/4A/4D/4!<)!!f!=C/4D/4C/4=B,/4C/4E/4A/4C/4!f!!>(!_B,/4C/4B,/4A,/4B,/4D/4G/4B,/4A,/4C/4!>)!!p!A,/4[I:staff +1]^F,/4D,/4C,/4B,,/4A,,/8 | %81
!p![I:staff -1] [gbg']2 [dd']2- [dd']/[Bb]/[Aa]/[Bb]/ [^FAcd^f]>[Ff] | %82
!p! [Gceg]3!pp!!8va(! (9:8:9g'/8e'/8c'/8g/8c'/8e'/8g'/8c''/8e''/8 (6:4:6g''/8d''/8b'/8g'/8d'/8b/8(6:4:6g'/8d'/8b/8!8va)!g/8d/8B/8(6:4:6G/8D/8B,/8G/8D/8B,/8[I:staff +1](5:4:5G,/8D,/8B,,/8G,,/8D,,/8!p![I:staff -1]{/D} d-d/4g/4[Bb]/4[dd']/4 | %83
!p!!<(! [ff']2{/F} f-f/4b/4[dd']/4[ff']/4 [aa']2{/A} a-a/4d'/4[ff']/4[aa']/4!<)! | %84
!f!!8va(! [d'f'_a'=b'd'']2!8va)! (7:4:7D/4F/4_A/4=B/4d/4f/4_a/4(7:4:7=b/4d'/4f'/4!8va(!a'/4b'/4d''/4f''/4!>(! (7:4:7_a''/4f''/4d''/4b'/4a'/4f'/4d'/4(7:4:7b/4!8va)!a/4f/4d/4B/4d/4f/4[Q:1/4=54] (5:4:5a/4f/4d/4B/4A/4(5:4:5F/4D/4=B,/4D/4F/4 (5:4:5A/4F/4D/4B,/4[I:staff +1]A,/4(5:4:5F,/4D,/4=B,,/4D,/4!p!F,/4!>)! | %85
[Q:1/4=54]"^Più mosso"!p![I:staff -1] x4 z/ _A/G/A/ D>D | d4 z/ _A/G/A/ D>D | d4 z/ _A/G/A/ D>D | %88
 x2!pp! (6:4:6D/4F/4_A/4=B/4A/4F/4 x x2 (3D/4F/4A/4d/8B/8A/8F/8 x | x8 | %90
[Q:1/4=54]"^Tempo I" x2 x x/ [Gdf]/ [df]/[ce]/ x2 x/ [cgc']/ | %91
 [cgc']/[=B_a=b]/ x2 x/ a/ a/g/ x2 x/ [ee']/ | %92
 [ee']/[dd']/ x2 [^c^c']/[dd']/ [DG]/[=C^F]/ [^c^c']/[dd']/ [EA]/[DG]/!<(! (5:4:5[cc']/4[dd']/4[ee']/4[=e=e']/4[ff']/4!<)! | %93
!mf! [^f^f']/[gg']/ [DG]/[EA]/4[=F=B]/4 [FB]/[EA]/ [^f^f']/[gg']/ [Gc]/[=FB]/ [^f^f']/[gg']/ [_Ad]/[Gc]/!f! [Gg]/[_a_a']/ | %94
 [_a_a']/[gg']/[gg']/[ff']/ [ff']/[ee']/[ee']/[dd']/ [ff']/[ee']/[ee']/[dd']/ [dd']/[cc']/[cc']/[=B=b]/ | %95
 [dd']/[cc']/[cc']/[Bb]/ [Bb]/[_A_a]/[Aa]/[^F^f]/ [Aa]/[Gg]/[Gg]/[=F=f]/ [gc'e'g']2 | %96
 [Dd]/[Cc]/[Cc]/[Q:1/4=48]"_Rit."[B,B]/ [B,B]/[_A,_A]/[A,A]/[^F,^F]/ [A,A]/[G,G]/[G,G]/[=F,=F]/ x2 | %97
[K:bass] [=B,,=B,]/[C,C]/[D,D]/[E,E]/ [E,E][I:staff +1][E,,,E,,]- [E,,,E,,][I:staff -1] [C,E,_A,C][K:treble] [CE_Ac] [ce_ac'] | %98
!>(! f/g/_a/b/ b=d z _D [DG_d] [dg_d']!>)! | %99
[Q:1/4=54]"^Più mosso"!p! g/_a/b/c'/[Q:1/4=48] c'e[Q:1/4=54] f/g/a/b/[Q:1/4=48] b_d | %100
[Q:1/4=54] =d/e/g/_a/[Q:1/4=48] ac[Q:1/4=54] c/_d/^f/g/[Q:1/4=48] gB | %101
[Q:1/4=54] c/_d/^f/g/[Q:1/4=48] gB!p![Q:1/4=54] x2 A/B/c/_d/ | %102
 c/_d/^f/g/ f/g/a/b/ a/b/c'/_d'/ c'/d'/^f'/g'/ | %103
 x2 C/_D/^F/[Q:1/4=42]G/ x4[Q:1/4=48]"^Rit."[Q:1/4=36][Q:1/4=20] | %104
!p![Q:1/4=54]"^Tempo I" z4 z/ B/A/B/ ^F>F | G2 d z z/ B/A/B/ ^F>F |!p! G2 g z z/ g/f/g/ _A2- | %107
 A/f/e/f/ G2- G/e/d/e/ ^F/e/d/c/ | c/B/A/B/ ^C/B/A/G/ G/D/B,/C/ [A,D]2 |!mf! z4 x2 ^f2 | %110
 [Gg]2 [dd'] x x2 ^f2 | [Gg]2 [gg'] z z/ g/f/g/ _A2 | %112
!mf!!<(! _A/f/e/f/ G2- G/e/d/e/ ^F/e/d/c/!<)! | %113
!f! c/B/A/B/ ^C/B/A/G/!mf! G/D/B,/C/!mp![Q:1/4=48] [A,D]2 || %114
!pp!"_ad lib." z/[I:staff +1] D,/G,/B,/[I:staff -1] D/B,/A,/B,/ G,/B,/[Q:1/4=54]D/^F/ G/D/C/D/ | %115
!<(! B,/D/G/B/ d2-[Q:1/4=60] d/G/=B/d/ c2-!<)! |!p! c/G/A/c/[Q:1/4=66] B2 z/ =B/d/=b/ _a2- | %117
 a/c/e/_a/[Q:1/4=72] g2 z/ d/e/c/ ^f2 |!<(! z/ d/e/c/[Q:1/4=78] g2 z/ d/e/c/ a2!<)! | %119
[Q:1/4=60]!mp! a/4g/4a/4^f/4c'- c'/4b/4c'/4a/4e'-!<(! e'/4d'/4e'/4c'/4^f'- f'/4d'/4e'/4c'/4a'-!<)! | %120
[Q:1/4=72]!mf! (5:4:5a'/4!8va(!^f'/4c''/4a'/4e''/4(5:4:5c''/4a'/4f'/4e'/4c'/4(5:4:5a/4c'/4!8va)!e'/4c'/4a/4(5:4:5^f/4e/4c/4A/4c/4(5:4:5e/4c/4A/4^F/4!<(!E/4(5:4:5C/4[I:staff +1]A,/4[I:staff -1]C/4E/4F/4(5:4:5A/4c/4e/4f/4a/4(5:4:5f/4e/4c/4A/4F/4(5:4:5E/4C/4[K:bass]A,/4=F,/4E,/4(5:4:5C,/4A,,/4^F,,/4E,,/4C,,/4!<)! | %121
[K:treble]!f! x2 !arpeggio!.[e^fe']2 !arpeggio!.[efe']2 !arpeggio!.[efe']2 | %122
 !arpeggio![Bdgb]/4!p! G/4B/4d/4g/4d/4B/4G/4!mp! !^!^F/4!p! G/4B/4d/4g/4d/4B/4G/4!mp! !^!D/4!p! G/4B/4d/4g/4d/4B/4G/4!mp!!8va(! !^![d'd'']/4!8va)!!p! G/4B/4d/4g/4d/4B/4G/4 | %123
 x/4!p! G/4B/4d/4g/4d/4B/4G/4!mp! !^!^F/4!p! G/4B/4d/4g/4d/4B/4G/4!mp! !^!D/4!p! G/4B/4d/4g/4d/4B/4G/4!mp!!8va(! !^![d'd'']/4!8va)!!p! G/4B/4d/4g/4d/4B/4G/4 | %124
 x/4!p! G/4B/4d/4g/4d/4B/4G/4!mp! !^!^F/4!p! G/4B/4d/4g/4d/4B/4G/4!mp! !^!D/4!p! G/4B/4d/4g/4d/4B/4G/4!mp!!8va(! !^![d'd'']/4!8va)!!p! G/4B/4d/4g/4d/4B/4G/4 | %125
 x/4!p! G/4B/4e/4g/4f/4B/4G/4!mp! !^!^F/4!p! G/4B/4e/4g/4e/4B/4G/4!<(! !^!A/4 B/4e/4g/4b/4g/4e/4B/4 !^!d/4 e/4g/4b/4e'/4b/4g/4e/4!<)! | %126
 !^!^f/4!mp! g/4[Q:1/4=78]"_Accel."b/4e'/4g'/4e'/4b/4g/4!<(! !^!a/4 b/4e'/4g'/4b'/4g'/4e'/4b/4 !^!f/4 g/4b/4e'/4g'/4e'/4b/4g/4 !^!d/4 e/4g/4b/4e'/4b/4g/4e/4!<)! | %127
 !^!A/4!mf! B/4e/4g/4b/4g/4e/4B/4 !^!^F/4 G/4B/4e/4g/4e/4B/4G/4 !^!D/4 E/4G/4B/4e/4B/4G/4E/4 | %128
[I:staff +1] !^!A,/4[I:staff -1] B,/4E/4G/4B/4G/4E/4B,/4 x/4 G,/4B,/4E/4G/4E/4B,/4[K:bass][I:staff +1]G,/4E,/4B,,/4G,/4E,/4B,,/4G,,/4E,,/4B,,,/4G,,,/4!f![I:staff -1] x/4 x/ x | %129
[K:treble] x/ B/4e/4g/4b/4!8va(!e'/4g'/4b'/4e''/4 g''/!8va)![Q:1/4=20] x[Q:1/4=60] x4 | x8 | %131
!ff! !^![gbd'g']/[Bdg]/8G/8[Bdg]/8G/8[Bdg]/8G/8[Bdg]/8G/8[Bdg]/8G/8[Bdg]/8G/8 !////-![Bdg] G!ff! [Bdg]/ z/ z[I:staff +1] (7:4:7B,,/4D,/4G,/4B,/4[I:staff -1]D/4G/4B/4(6:4:6d/4g/4!8va(!b/4d'/4g'/4b'/4 | %132
 !^![d'a'd'']/!8va)!!mf! [da]/8A/8[da]/8A/8[da]/8A/8[da]/8A/8[da]/8A/8[da]/8A/8 !////-![da] A!ff! [da]/ z/ z[I:staff +1] (7:4:7^F,/4A,/4[I:staff -1]D/4^F/4A/4d/4^f/4(6:4:6a/4d'/4!8va(!^f'/4a'/4d''/4^f''/4!8va)! | %133
 !^![bd'b']z/>[^fc'd'^f']/ !^![gd'g']z/>[d=fgd']/ !^![ege']z/>[=Bfg=b]/ !^![cgc']z/>[egc'e']/ | %134
 [dgbd']/ z/ z z2 [^fad'^f']/ z/ z z2 | [gbd'g']/ z/ z z2 z4 |] %136
V:2
!f! z/"^ad lib" D,/G,/B,/ D/B,/A,/B,/ x4 | x8 |[M:6/4] [G,,,G,,]8- x4 |[M:4/4] [G,,,G,,]8 | %4
[M:5/4]"^accel." x2 x8 |[M:5/4] x10 |[M:4/4]!ped! x8 | x2 x2 x2 x/!ped-up! z/!ped! G, | %8
 G, G,!ped-up!!ped! !^![G,,,G,,] x x2!ped-up! |!ped! x4!ped-up!!ped! !^!=F,/4 x/4 x/ x x2 | %10
 x4!ped-up!!ped! !^!=E,/4 x/4 x/ x x2!ped-up! |!ped! x4!ped-up!!ped! !^!_E,/4 x/4 x/ x x2!ped-up! | %12
!ped! x6!ped-up!!ped!!ped-up!!ped!!ped-up! |[M:3/8]!ped! x3!ped-up! | %14
[M:4/4] !^![E,,,E,,]4 !^![^E,,,^E,,]4 | !^![F,,,F,,]4 !^![^F,,,^F,,]4 | %16
 !^![G,,,G,,]2 !^![_A,,,_A,,]2 !^![=A,,,=A,,]2 !^![B,,,B,,]2 | %17
 !^![=B,,,=B,,]2 !^![C,,C,]2 !^![=E,,=E,]2 !^![G,,G,]2 || %18
[M:4/4] z2!8vb(! [D,,,D,,]4 [C,,,D,,,C,,]2- | %19
 [C,,,D,,,C,,]2 [=B,,,,D,,,=B,,,]2 [_B,,,,D,,,_B,,,]2 [A,,,,A,,,]2!8vb)! | %20
!ff!!ped! [G,,,B,,,D,,G,,]/!mf![G,,B,,D,]/8G,/8[G,,B,,D,]/8G,/8[G,,B,,D,]/8G,/8[G,,B,,D,]/8G,/8[G,,B,,D,]/8G,/8[G,,B,,D,]/8G,/8 [G,,B,,D,]/8G,/8[G,,B,,D,]/8G,/8[G,,B,,D,]/8G,/8[G,,B,,D,]/8G,/8[G,,B,,D,]/8G,/8[G,,B,,D,]/8G,/8[G,,B,,D,]/8G,/8[G,,B,,D,]/8G,/8 [G,,B,,D,]/!ped-up! z/ z z2 | %21
!ped! [^F,,,A,,,D,,^F,,]/!mf![F,,D,]/8^F,/8[F,,D,]/8F,/8[F,,D,]/8F,/8[F,,D,]/8F,/8[F,,D,]/8F,/8[F,,D,]/8F,/8 [F,,D,]/8F,/8[F,,D,]/8F,/8[F,,D,]/8F,/8[F,,D,]/8F,/8[F,,D,]/8F,/8[F,,D,]/8F,/8[F,,D,]/8F,/8[F,,D,]/8F,/8 [F,,D,]/!ped-up! z/ z z2 | %22
!ff! !^![G,,,G,,]z/>[A,,,A,,]/ !^![B,,,B,,]z/>[=B,,,=B,,]/ !^![C,,C,]z/>[D,,D,]/ !^![E,,E,]z/>[C,,C,]/ | %23
 [^F,,^F,]!ped! z{/[^F,,,^F,,]} [D,A,D]/ z/ z!ped-up! z4 | %24
!mf!!ped! !arpeggio![D,_A,=B,D] z !arpeggio![F,A,B,]!ped-up! z z4 | %25
!p!!ped! !arpeggio![_A,=B,D] z x2!ped-up! z4 | %26
!p! !arpeggio![D,,D,] z z2!pp! !arpeggio![D,,D,] z z2 | %27
!pp!!ped! [G,,,G,,]/[K:treble] D/4B,/4G/D/ z/ G/4D/4B/G/!ped-up![K:bass]!ped! [G,,,G,,]/[K:treble] D/4B,/4G/D/ z/ G/4D/4B/G/!ped-up! | %28
[K:bass]"^expressivo"!ped! [G,,,G,,]/[K:treble] D/4B,/4G/D/ z/ G/4D/4B/G/!ped-up![K:bass]!ped! [D,,D,]/[K:treble] B,/4G,/4D/B,/!ped-up!!ped! z/ C/4A,/4D/C/!ped-up! | %29
[K:bass]!ped! [G,,,G,,]/ C/4G,/4E/C/ z/ G,/4E,/4C/G,/!ped-up!!ped! [G,,,G,,]/ G,/4D,/4B,/G,/!ped-up!!ped! [G,,,G,,]/ B,/4G,/4D/!p!B,/!ped-up! | %30
!ped! [A,,,A,,]/ C/4F,/4E/C/!ped-up!!ped! [B,,,B,,]/ B,/4F,/4D/D,/!ped-up!!ped! [A,,,A,,]/ A,/4D,/4C/A,/!ped-up!!ped! [G,,,G,,]/ G,/4D,/4B,/G,/!ped-up! | %31
!ped! [D,,,D,,]/ A,/4^F,/4D/A,/!ped-up!!ped! z/ x/ x!ped-up!!ped! x2 x/ x/ x!ped-up! | %32
!ped! [G,,,G,,]/ B,/4G,/4D/D,/!ped-up!!ped! z/ D/4B,/4G/G,/!ped-up!!ped! [B,,,B,,]/ B,/4G,/4D/D,/!ped-up!!ped! [D,,D,]/ C/4A,/4D/D,/!ped-up! | %33
!ped! [G,,,G,,]/ G,/4E,/4C/G,/ z/ C/4G,/4E/C/!ped-up!!f!!ped! [G,,,G,,]/ B,/4G,/4D/B,/!ped-up!!ped! [B,,,B,,]/!mf! G,/4D,/4B,/G,/!ped-up! | %34
!ped! [A,,,A,,]/ F,/4C,/4C/F,/!ped-up!!ped! [D,,D,]/!mf! B,/4F,/4D/B,/!ped-up!!ped! [^C,,^C,]/ A,/4=E,/4=E/A,/!ped-up!!ped! !^![F,,F,]/!mf! D/4A,/4F/D/!ped-up! | %35
 [=E,,=E,]/ z/!ped! [^C,G,^C]/[D,A,D]/4[E,B,=E]/4!ped-up!!ped! [E,B,E]/[D,A,D]/4[C,G,C]/4!ped-up! [C,G,C]/ z/ z!<(!!ped! [F,A,D]/[G,CE]/4!f![A,DF]/4!<)!!ped-up!!>(!!ped! [A,DF]/[G,CE]/4!mf![F,A,D]/4!>)!!ped-up! [F,A,D]/ z/ | %36
 z!<(!!ped! [G,B,=E]/[A,^CF]/4!f![B,EG]/4!<)!!ped-up!!>(!!ped! [B,EG]/[A,CF]/4!mf![G,B,E]/4!>)!!ped-up! [G,B,E]/ z/ z!<(!!ped! [F,A,D]/[G,CE]/4!f![A,DF]/4!<)!!ped-up!!>(!!ped! [A,DF]/[G,CE]/4!mf![F,A,D]/4!>)!!ped-up! [F,A,D]/ z/ | %37
"^cresc."!<(! z/!ped! [G,B,E]/[A,D^F]/4[B,EG]/4!ped-up! [B,EG]/ z/[K:treble]!ped! [A,C^F]/[B,DG]/4[CEA]/4!ped-up! [CEA]/ z/!ped! [B,DG]/[D^FA]/4[GB]/4!ped-up! [GB]/ z/[K:bass]!ped! [^F,A,D]/[G,B,=E]/4[A,C^F]/4!ped-up! [A,CF]/ | %38
 z/!ped! [G,B,D]/[A,C^F]/4[B,DG]/4!<)!!ped-up!!f! [B,DG]/ z/!ped! [D,F,=B,]/[E,G,C]/4[F,_A,B,D]/4!ped-up! [F,A,B,D]/ z/!ped! [E,G,C]/[G,B,D]/4[CE]/4!ped-up! [CE]/ z/!ped! [=B,,G,D]/[C,E,G,C]/4[D,F,A,B,]/4!ped-up! [D,F,A,B,]/ | %39
 z2!ped!!f! [C,,G,,E,]2!mf! [G,G]2[K:treble]!p! [c'e']2!ped-up! | %40
 z2[K:bass]!ped! [E,,C,G,]2 [C,C]2[K:treble] [gc'g']2!ped-up! | %41
[K:bass]!p!!ped! ^F,,/G,,/A,,/!ped-up!B,,/ z2 x4[K:treble] | %42
!ped! ^f/g/ z!ped-up![K:bass] !>![E,,G,,B,,_D,]2- [E,,G,,B,,D,] [E,,G,,B,,E,]"^dim." [E,G,B,E][K:treble] [EGBe] | %43
!ped! ^f/g/a/b/!ped-up! z[K:bass] !arpeggio![=E,B,CG]!ped! =B,/C/!ped-up!D/_E/ EG, | %44
 !arpeggio![A,CEF] z z2 z2 z/ [F,,F,]/[G,,F,]/[A,,F,]/ | %45
!ped! [B,,,B,,]/!pp! [F,B,D]"^dolce"[F,B,D]/!ped-up!!ped! B,,/ [^F,B,D][F,B,D]/!ped-up!!ped! B,,/ [G,B,D][G,B,D]/!ped-up!!ped! [B,,,B,,]/ [_A,B,D][A,B,D]/!ped-up! | %46
 [E,,E,]/!pp! [G,B,E][G,B,E]/ [G,,G,]/ [G,=B,F][G,B,F]/ [C,,C,]/ [G,CE][G,CE]/ C,/ [B,C][B,C]/ | %47
!ped! [F,,F,]/!pp! [A,CF][A,CF]/ A,,/ [A,C]!ped-up![A,C]/!ped! G,,/ [G,B,E][G,B,E]/ A,,/ [A,EG]!ped-up![A,EG]/ | %48
!ped! [D,,D,]/!pp! [A,D^F][A,DF]/!ped-up!!ped! G,,/ [G,=B,=F][G,B,F]/!ped-up!!ped! C,/ [G,_B,=E][G,B,E]/!ped-up!!ped! F,,/ [A,_EG][A,EG]/!ped-up! | %49
!ped! [G,B,D][^F,CE][G,B,D]!ped-up![^G,D=F]!ped! [A,EF][G,DF][A,EF]!ped-up![A,EF] | %50
!ped! [B,DF][A,EF][B,DF]!ped-up![K:treble][=B,F_A]!ped! [CF=A][CFA][^CFB]!ped-up![CFB] | %51
!ped!!pp!!<(! [DFB][DFB][DFB][DFB]!ped-up!!ped! [DA_B][DAB][DAB][DAB]!ped-up! | %52
!ped! [EGB][EGB][EGB]!<)![EGB]!ped-up![K:bass]!mp!!>(!!ped! !arpeggio![=E,B,CG][E,G,B,C][E,G,B,C][E,G,B,C]!>)!!ped-up! | %53
!pp! [F,B,D]/[F,B,D]/[F,B,D]/[F,B,D]/ [F,D]/[F,D]/[F,D]/[F,D]/!ped! !arpeggio![F,CE]2!ped-up!!pp!!ped! !arpeggio![F,,F,]!pp! z!ped-up! | %54
[K:treble]!pp!!ped! f4!ped-up! ^f4 | g4!ped! x4[K:bass]!ped-up! | [F,B,D]4 [F,G,CE]2 [F,A,CE]2 | %57
!ped! [B,,,B,,]!p!"^dolcissimo" F,B,D!ped-up![K:treble] FBd z | %58
[K:bass]!ped! [B,,,B,,] F,B,D!ped-up![K:treble] FBd z | %59
[K:bass]!ped! [F,,,F,,] C,F,A,!ped-up! CFA z | %60
!ped! [F,,,F,,]!pp! [A,CF]!ped-up![B,EG][A,CF] [G,B,E][^F,A,D]!ped!{/!^!=F,,}[=F,A,D]!ped-up![E,A,C] | %61
!ped! [B,,D,F,B,]!p! F,B,D!ped-up![K:treble] FBd z | %62
[K:bass]!mp!!ped! [_A,,,_A,,] F,B,D!ped-up![K:treble] FBd z | %63
[K:bass]!mf!!ped! [G,,,G,,] D,G,=B,!ped-up![K:treble] DG=B z | %64
[K:bass]!ped! [F,,,F,,] D,G,=B,!ped-up![K:treble] DGd z | %65
[K:bass]!ped! [G,,,G,,]/ G,,/4G,/4!ped-up! G,/4^F,/4G,,/4=F,/4 F,/4=E,/4G,,/4_E,/4 E,/4E,/4G,,/4D,/4!ped! D,/4C,/4!ped-up!G,,/4G,/4 G,/4^F,/4G,,/4=F,/4 G,,/4=E,/4G,,/4_E,/4 E,/4D,/4G,,/4D,/4 | %66
 D,/4C,/4G,,/4F,/4 F,/4E,/4C,/4A,/4 A,/4G,/4E,/4D/4 D/4C/4G,/4[I:staff -1]F/4[I:staff +1] x4 | %67
 [E,,,E,,]/ B,,/4B,/4 B,/4A,/4B,,/4_A,/4 A,/4G,/4B,,/4G,/4 G,/4_G,/4B,,/4F,/4 F,/4E,/4B,,/4B,/4 B,/4=A,/4B,,/4_A,/4 A,/4=G,/4B,,/4G,/4 G,/4_G,/4B,,/4F,/4 | %68
 F,/4E,/4!<(!B,,/4_A,/4 A,/4G,/4_D,/4C/4 C/4B,/4G,/4[I:staff -1]F/4[I:staff +1] x x4!<)! | %69
 [D,,,D,,]/ x/ x x2 [D,,B,,D,]/ x/ x x2 | [D,,B,,D,]/ x[K:treble] x/ x2 x4 | %71
[K:bass] [D,,,D,,]/[K:treble] x/ x x2[K:bass] [D,,B,,D,]/[K:treble] x/ x x2 | %72
[K:bass] [D,,B,,D,]/[K:treble] x/ x x2 x4 | %73
[K:bass] !^![D,,,D,,]/[E,,,E,,]/[^F,,,^F,,]/[A,,,A,,]/[B,,,B,,]/[=B,,,=B,,]/[C,,C,]/[^C,,^C,]/[D,,D,]/[E,,E,]/[^F,,^F,]/[A,,A,]/!^![_B,,=C,E,_B,]/[C,C]/[D,D]/[E,E]/ | %74
 !^![D,,,D,,]/[E,,,E,,]/[^F,,,^F,,]/[A,,,A,,]/[C,,C,]/[^C,,^C,]/[D,,D,]/[E,,E,]/[F,,^F,]/[A,,A,]/[=C,=C]/[D,D]/!^![E,G,CE]/[F,^F]/[G,G]/[A,A]/ | %75
 !^![D,,,D,,]/[^F,,,^F,,]/[A,,,A,,]/[^G,,,^G,,]/[=G,,,=G,,]/[F,,,F,,]/[A,,,A,,]/[C,,C,]/[=B,,,=B,,]/[_B,,,_B,,]/[A,,,A,,]/[C,,C,]/[E,,E,]/[D,,D,]/[^C,,^C,]/[=C,,=C,]/ | %76
 [E,,E,]/[^F,,^F,]/[A,,A,]/[^G,,^G,]/[=G,,=G,]/[F,,F,]/[A,,A,]/[B,,B,]/[=B,,=B,]/[C,C]/[^C,^C]/[D,D]/[E,E]/[=E,=E]/[=F,=F]/[^F,^F]/ | %77
!f!!ped! [G,B,DG]/4[^F,^F]/4[=F,=F]/4[=E,=E]/4[_E,_E]/4[D,D]/4[^C,^C]/4[D,D]/4!ped-up!!ped![E,E]/4[D,D]/4[=C,=C]/4[B,,B,]/4[A,,A,]/4[G,,G,]/4[^F,,^F,]/4[G,,G,]/4[B,,B,]/4[A,,A,]/4!ped-up!!ped![G,,G,]/4[F,,F,]/4[=F,,=F,]/4[E,,E,]/4[D,,D,]/4[^C,,^C,]/4!ped-up!!ped![E,,E,]/4[D,,D,]/4[=C,,=C,]/4[D,,D,]/4[B,,,B,,]/4[D,,D,]/4!ped-up![A,,,A,,]/4[D,,D,]/4 | %78
!ped! [G,,,G,,]/4!ff![=B,,,=B,,]/4[C,,C,]/4[D,,D,]/4[E,,E,]/4[^F,,^F,]/4[G,,G,]/4[C,=B,]/4[C,C]/4[D,D]/4[E,E]/4[^F,^F]/4[K:treble][G,G]/4[=B,=B]/4!ped-up![Cc]/4[Ee]/4!ped! [G_Bd] z!ped-up![K:bass]!mf!!ped! [_B,,D,]-[B,,D,]/4G,/4_B,/4D/4!ped-up! | %79
!ped! [A,CEF]2!ped-up!!ped! [B,DF]-[B,DF]/4D/4B,/4G,/4!ped-up!!ped! [A,,C,D,^F,]2!ped-up!!ped! [G,,-B,,D,G,-](3[G,,^C,=E,G,]/A,/B,/!ped-up! | %80
!ped! [D,^F,A,]/4 E,/4D,/4^C,/4D,/4F,/4A,/4D,/4=C,/4!ped-up!D,/4C,/4=B,,/4C,/4E,/4A,/4C,/4_B,,/4C,/4B,,/4A,,/4B,,/4D,/4G,/4B,,/4A,,/4C,/4A,,/4^F,,/4D,,/4C,,/4B,,,/4A,,,/4 | %81
!pp!!ped! G,,,/8D,,/8G,,/8B,,/8D,/8G,/8B,/8D/8G/8D/8B,/8G,/8D,/8B,,/8G,,/8D,,/8!ped! B,,,/8!ped-up!D,,/8G,,/8B,,/8D,/8G,/8B,/8D/8[I:staff -1]B/8G/8D/8[I:staff +1]B,/8G,/8D,/8B,,/8G,,/8 D,,/8B,,/8D,/8G,/8!ped-up!!ped!B,/8[K:treble]D/8G/8B/8d/8B/8G/8D/8[K:bass]B,/8G,/8D,/8B,,/8!ped-up!!ped! D,,/8A,,/8C,/8D,/8^F,/8A,/8E/8D/8C/8A,/8F,/8D,/8!ped-up!C,/8A,,/8^F,,/8D,,/8 | %82
!pp!!ped! (3G,,,/4G,,/4C,/4E,/8G,/8C/8E/8 (9:8:9G/8E/8C/8G,/8C/8E/8[I:staff -1]G/8c/8e/8 (9:8:9g/8e/8c/8G/8c/8e/8g/8c'/8e'/8[I:staff +1][K:treble]!p! [eg]/!ped-up![df]/4[ce]/4!ped! [Bd] x/[K:bass] x/!ped-up!!pp!!ped! (3B,,,/4D,,/4G,,/4B,,/8D,/8G,/8B,/8[I:staff -1]D/8G/8(3d/8B/8G/8(3D/8[I:staff +1]B,/8G,/8(3D,/8B,,/8G,,/8!ped-up! | %83
!ped!!pp!!<(! (9:8:9A,,,/8C,,/8F,,/8A,,/8C,/8F,/8A,/8[I:staff -1]C/8F/8(9:8:9c/8A/8F/8C/8[I:staff +1]A,/8F,/8C,/8A,,/8"^cre"F,,/8!ped-up!!ped! (3D,,/4F,,/4B,,/4D,/8"^-"F,/8B,/8[I:staff -1]D/8F/8B/8(3f/8B/8G/8(3D/8[I:staff +1]B,/8"^-"G,/8(3D,/8B,,/8G,,/8!ped-up!!ped!"^scen" (9:8:9^C,,/8=E,,/8A,,/8^C,/8"^-"=E,/8A,/8[I:staff -1]^C/8=E/8A/8(9:8:9=e/8^c/8A/8E/8C/8[I:staff +1]A,/8"^-"E,/8C,/8A,,/8!ped-up!!ped!"^do" (3F,,/4A,,/4D,/4F,/8A,/8[I:staff -1]D/8F/8A/8d/8(3a/8f/8d/8(3A/8F/8D/8[I:staff +1](3A,/8F,/8D,/8!ped-up!!<)! | %84
!mf!!ped! (5:4:5F,,,/4_A,,,/4=B,,,/4D,,/4F,,/4(6:4:6_A,,/4=B,,/4D,/4F,/4_A,/4=B,/4 x2!ped!!ped-up! x2 x2 x2!ped-up! | %85
!pp!"^cadenza ad lib."!ped! (6:4:6_A,/4F,/4D,/4=B,,/4D,/4F,/4 (6:4:6A,/4F,/4D,/4B,,/4D,/4F,/4 (6:4:6A,/4F,/4D,/4B,,/4D,/4F,/4 (6:4:6A,/4F,/4D,/4B,,/4D,/4F,/4!ped-up!!ped! (6:4:6A,/4F,/4D,/4B,,/4D,/4F,/4 (6:4:6A,/4F,/4D,/4B,,/4D,/4F,/4!ped-up!!ped! (6:4:6A,/4F,/4D,/4B,,/4D,/4F,/4 (6:4:6A,/4F,/4D,/4B,,/4D,/4F,/4!ped-up! | %86
!ped! (5:4:5=A,/4^F,/4D,/4C,/4D,/4 (5:4:5A,/4F,/4D,/4C,/4D,/4 (5:4:5A,/4F,/4D,/4C,/4D,/4!p! (5:4:5A,/4!pp!F,/4D,/4C,/4D,/4!ped-up!!ped! (6:4:6_A,/4=F,/4D,/4=B,,/4D,/4F,/4 (6:4:6A,/4F,/4D,/4B,,/4D,/4F,/4!ped-up!!ped! (6:4:6A,/4F,/4D,/4B,,/4D,/4F,/4 (6:4:6A,/4F,/4D,/4B,,/4D,/4F,/4!ped-up! | %87
!ped! (5:4:5=A,/4^F,/4D,/4C,/4D,/4 (5:4:5A,/4F,/4D,/4C,/4D,/4 (5:4:5A,/4F,/4D,/4C,/4D,/4!p! (5:4:5A,/4!pp!F,/4D,/4C,/4D,/4!ped-up!!ped! (6:4:6_A,/4=F,/4D,/4=B,,/4D,/4F,/4 (6:4:6A,/4F,/4D,/4B,,/4D,/4F,/4!ped-up!!ped! (6:4:6A,/4F,/4D,/4B,,/4D,/4F,/4 (6:4:6A,/4F,/4D,/4B,,/4D,/4F,/4!ped-up! | %88
!ped! (6:4:6_A,/4F,/4D,/4=B,,/4D,/4F,/4 (6:4:6A,/4=B,/4D/4F/4=E/4_E/4 x (6:4:6D/4B,/4A,/4F,/4D,/4F,/4!ped-up!!ped! (6:4:6A,/4F,/4D,/4B,,/4D,/4F,/4 (6:4:6A,/4B,/4D/4F/4=E/4_E/4 x (6:4:6D/4B,/4A,/4F,/4D,/4F,/4!ped-up! | %89
!pp!!ped! (7:4:7_A,/4F,/4D,/4=B,,/4_A,,/4F,,/4D,,/4(7:4:7=B,,,/4D,,/4F,,/4A,,/4B,,/4D,/4F,/4(7:4:7A,/4[I:staff -1]=B,/4D/4F/4_A/4=B/4d/4(7:4:7f/4_a/4!ped-up!!ped!d'/4=b/4a/4f/4d/4(7:4:7B/4A/4F/4D/4B,/4!p![I:staff +1]A,/4F,/4(6:4:6D,/4_A,,/4F,,/4D,,/4=B,,,/4_A,,,/4!ped-up!!mp! F,,,/!>![D,,,D,,]/!>![^C,,,^C,,]/!>![=C,,,=C,,]/ | %90
 !>![=B,,,,=B,,,]/!p! z/!ped! [B,,,=B,,]/!mp![C,,C,]/4[D,,D,]/4!ped-up!!ped! [D,,D,]/[C,,C,]/4!p![B,,,B,,]/4!ped-up! [B,,,B,,]/ [=B,D]/ [B,D]/[CE]/!ped! [C,,C,]/!mp![D,,D,]/4[E,,E,]/4!ped-up!!ped! [E,,E,]/!p![D,,D,]/4[C,,C,]/4!ped-up! [C,,C,]/ x/ | %91
 x!ped! [F,=B,]/!mp![G,C]/4[_A,D]/4!ped-up!!ped! [A,D]/!p![G,C]/4[F,B,]/4!ped-up! [F,B,]/ x/ x!ped! [G,C]/!mp![=B,D]/4[CE]/4!ped-up!!ped! [CE]/!p![B,D]/4[G,C]/4!ped-up! [G,C]/ x/ | %92
 x!ped! [A,D]/[B,=E]/4[C^F]/4!ped-up!!ped! [CF]/[B,E]/!ped-up! x!ped! [B,,B,]/[A,,A,]/!ped-up! x [=C,=C]/[B,,B,]/!ped! x!ped-up! | %93
 x!ped! [=B,,=B,]/[C,C]/4[D,D]/4!ped-up!!ped! [D,D]/[C,C]/!ped-up! x!ped! [E,E]/[D,D]/!ped-up! x!ped! [F,F]/[E,E]/!ped-up! z | %94
 z2 !^![C,,,C,,]2 !^![G,,C,E,G,]2 !^![G,CEG]2 | z2 [C,,C,]2 [G,CE]2 z2 | %96
 z4 z2 [F,F]/[E,E]/[E,E]/[D,D]/ | x4 x [E,,_A,,] [E,_A,][K:treble]"^dim." [E_A] | %98
!ped! [EB] z!ped-up![K:bass] [E,,,E,,]2- [E,,,E,,] [_D,G,] [E,B,] z | %99
[K:treble]!ped! [Ec] z!ped-up!!ped! G/_A/B/!ped-up!c/!ped! c_D!ped-up!!ped! F/G/A/!ped-up!B/ | %100
!ped! BC!ped-up!!ped! D/E/G/!ped-up!_A/!ped! AB,!ped-up!!ped! C/_D/^F/!ped-up!G/ | %101
 GB, C/_D/^F/G/ F/G/[I:staff -1]=A/B/[I:staff +1] GB, | x2 B,E, x4 | %103
!>(! c/_d/^f/g/ x2[K:bass] C,/_D,/^F,/G,/ C,,/_D,,/^F,,/!pp!G,,/!>)! | %104
 z!<(! [G,B,]!mp![A,C][B,D]!<)!!>(! [CE]3!>)!!p! [CD] |!p! z [G,B,]!mp![A,C][B,D] [CE]3!p! [CD] | %106
 z"^cresc." [G,B,]!mp![A,C][B,D] [CE]3 [DF] | [=B,D]3 [CE] [A,C]4 |"^dim." G,2!p! [=E,G,]2!p! x4 | %109
 z [G,B,][A,C][B,D] [C-E]3 [CD] |!mf! z [G,B,][A,C][B,D] [C-E]3 [CD] | %111
!ped!!mf! z/!mp! D,/[G,B,]/D,/ [F,A,]/G,/!ped-up![B,D]/G,/ [CE]2- [CE]/[CE]/[DF]/[CE]/ | %112
"^cresc."!mp!!<(! [=B,D]2- [B,D]/[B,D]/[CE]/[B,D]/ C2 D2!<)! | [G,B,]2 [=E,,=E,G,]2 x2 G,!p!^F, || %114
 [G,,,G,,]8- | [G,,,G,,]8 | [G,,,G,,]8- | [G,,,G,,]8 | z8 | z8 |!ped! x8 x2!ped-up! | %121
!ped! G,,, z G,2 G,2 G,2!ped-up! |!ped! !arpeggio![G,,D,G,B,DG]/4 x/4 x/ x x2 x4!ped-up! | %123
!mp!!ped! !^![=F,G,B,]/4 x/4 x/ x x2 x4!ped-up! |!mp!!ped! !^![=E,G,B,]/4 x/4 x/ x x2 x4!ped-up! | %125
!mp!!ped! !^![E,G,B,E]/4 x/4"^cresc." x/ x x2 x4!ped-up! |!ped! x2 x2 x4 | x4 x2 | %128
 x2 !^!^F,/4 x/4 x/ x x2 x/4!ped-up!!ped! x/4 E,,/4G,,/4B,,/4E,/4G,/4B,/4 | %129
[I:staff -1]E/4G/4[I:staff +1] x/ x x/!ped-up! x/ x !^![E,E]4 | !^![C,C]4 !^![D,D]4 | %131
!ped! !^![G,,,B,,,D,,G,,]/!mf![G,,B,,D,]/8G,/8[G,,B,,D,]/8G,/8[G,,B,,D,]/8G,/8[G,,B,,D,]/8G,/8[G,,B,,D,]/8G,/8[G,,B,,D,]/8G,/8 !////-![G,,B,,D,] G, [G,,,G,,]2!ped-up! x2 | %132
!ped! !^![^F,,,A,,,D,,^F,,]/ [F,,D,]/8^F,/8[F,,D,]/8F,/8[F,,D,]/8F,/8[F,,D,]/8F,/8[F,,D,]/8F,/8[F,,D,]/8F,/8 !////-![F,,D,] F, [F,,D,]2!ped-up! (7:4:7^F,,/4A,,/4D,/4F,/4A,/4[I:staff -1]D/4^F/4(6:4:6A/4d/4!8va(!^f/4a/4d'/4^f'/4!8va)! | %133
[I:staff +1] !^![G,,,G,,]z/>[A,,,A,,]/ !^![B,,,B,,]z/>[=B,,,=B,,]/ !^![C,,C,]z/>[D,,D,]/ !^![E,,E,]z/>[C,,C,]/ | %134
 [D,,D,]/ z/ z z2 [D,,^F,,A,,D,]/ z/ z z2 | [G,,,B,,,D,,G,,]/ z/ z z2 z4 |] %136
V:3
 [G,,,G,,]8- | x8 |[M:6/4] x12 |[M:4/4] x8 |[M:5/4] x2 x8 |[M:5/4] x10 |[M:4/4] x8 | x8 | x6 | x8 | %10
 x8 | x8 | x6 |[M:3/8] x3 |[M:4/4] x8 | x8 | x8 | x8 ||[M:4/4] x2!8vb(! x6 | x8!8vb)! | x8 | x8 | %22
 x8 | x8 | !arpeggio![=F,,,=F,,] z x2 z4 | !arpeggio![E,,,E,,] z !arpeggio![E,G,] z z4 | x8 | %27
 x/[K:treble] x7/2[K:bass] x/[K:treble] x7/2 | %28
[K:bass] x/[K:treble] x7/2[K:bass] x/[K:treble] x7/2 |[K:bass] x8 | x8 | x8 | x8 | x8 | x8 | %35
 x/ z/ [=E,,,=E,,]/[F,,,F,,]/4[G,,,G,,]/4 [G,,,G,,]/[F,,,F,,]/4[E,,,E,,]/4 [E,,,E,,]/ z/ x x x2 | %36
 x5 x2 x | x5/2[K:treble] x4[K:bass] x3/2 | x8 | x6[K:treble] x2 | x3/2[K:bass] x9/2[K:treble] x2 | %41
[K:bass] x2 B,,[E,,,E,,]- [E,,,E,,] [E,,G,,C,E,] [E,G,CE][K:treble] [EGce] | %42
 e z[K:bass] x2 x4[K:treble] | =e z x2[K:bass] F, z z2 | x8 | x8 | x8 | x8 | x8 | x8 | %50
 x3[K:treble] x5 | x8 | x4[K:bass] x4 | x8 | %54
[K:treble] !arpeggio![DFB].[DFB].[DFB].[DFB] .[D_AB].[DAB].[DAB].[DAB] | %55
 .[EGB].[EGB].[EGB].[EGB] .[=EGBc][K:bass].[=E,G,B,C].[E,G,B,C].[E,G,B,C] | x8 | x4[K:treble] x4 | %58
[K:bass] x4[K:treble] x4 |[K:bass] x8 | x8 | x4[K:treble] x4 |[K:bass] x4[K:treble] x4 | %63
[K:bass] x4[K:treble] x4 |[K:bass] x4[K:treble] x4 |[K:bass] x4 E,,/ x/ x x2 | E,,/ x/ x x2 x4 | %67
 x4 E,,/ x/ x x2 | E,,/ x/ x x2 x4 | x8 | x3/2[K:treble] x13/2 | %71
[K:bass] x/[K:treble] x7/2[K:bass] x/[K:treble] x7/2 |[K:bass] x/[K:treble] x15/2 |[K:bass] x8 | %74
 x8 | x8 | x8 | x8 | x3[K:treble] x3[K:bass] x2 | x8 | x8 | x37/8[K:treble] x7/8[K:bass] x5/2 | %82
 x3[K:treble] x5/2[K:bass] x5/2 | x161/20 | x10 | x8 | z2 x !arpeggio![D,,,D,,]/ z/ x4 | %87
 z2 z !arpeggio![D,,,D,,]/ z/ z4 | x8 | x8 | x8 | %91
 x [D,,D,]/[E,,E,]/4[F,,F,]/4 [F,,F,]/[E,,E,]/4[D,,D,]/4 [D,,D,]/ x/ x [E,,E,]/[F,,F,]/4[G,,G,]/4 [G,,G,]/[F,,F,]/4[E,,E,]/4 [E,,E,]/ x/ | %92
 z [^F,,^F,]/[G,,G,]/4[A,,A,]/4 [A,,A,]/[G,,G,]/ x x4 | x8 | x8 | x8 | x8 | x7[K:treble] x | %98
 x2[K:bass] x6 |[K:treble] x4 !arpeggio!E,2 x2 | E,2 x2 E,2 x2 | E,2 x2 x4 | x8 | x4[K:bass] x4 | %104
 !^![=D,,,=D,,]4 x4 | !^![D,,,D,,]4 x4 | [D,,,D,,]4 x4 | D,8 | E,2 A,,2 [D,,D,]4 | %109
 z/!mp! D,D,D,D,/- D,4 | z/!mp! D,D,D,D,/- D,4 | x4 G,4 | G,4 [G,=A,]4 | x4 [D,,D,]4 || x8 | x8 | %116
 x8 | x8 | x8 | x8 | x10 | x8 | x8 | x8 | x8 | x8 | x8 | x6 | %128
 x4 x2 x/4 !^!E,,,/4G,,,/4B,,,/4E,,/4G,,/4B,,/4E,/4 |G,/4B,/4 x/ x x/ x/ x !^![E,,,E,,]4 | %130
 !^![C,,,C,,]4 !^![D,,,D,,]4 | %131
 x6 (7:4:7B,,,/4D,,/4G,,/4B,,/4D,/4G,/4B,/4[I:staff -1](6:4:6D/4G/4!8va(!B/4d/4g/4b/4!8va)! | %132
 x293/40!8va(! x2/3!8va)! | x8 | x8 | x8 |] %136
V:4
 x8 | x2 z/ B/G/D/ E2- E/D/E/C/ |[M:6/4] D2- D/G/D/E/ =F2- F/E/F/D/ E2- E/D/E/C/ | %3
[M:4/4] =A2- A/D/E/C/ B2- B/D/E/C/ |[M:5/4] c2- c/G/A/^F/ e2- e/B/c/A/ ^f2- | %5
[M:5/4]!8va(! f'/d'/e'/c'/ a>^f c'>a e'>c' ^f'>e' | %6
[M:4/4] a'/4^f'/4e'/4d'/4c'/4b/4a/4g/4!8va)! ^f/4e/4d/4c/4B/4A/4c/4^F/4A/4E/4F/4C/4E/4[I:staff +1]A,/4C/4^F,/4A,/4E,/4^F,/4C,/4E,/4A,,/4C,/4^F,,/4 | %7
 A,,/4E,,/4^F,,/4C,,/4E,,/4C,,/4B,,,/4G,,,/4A,,,/4C,,/4^F,,/4A,,/4C,/4E,/4^F,/4A,/4[I:staff -1]C/4E/4^F/4A/4c/4^f/4a/4c'/4e'/4 ^f'/ x/4 !^![CEA] | %8
 !^![CEA] !^![CEA] x4 | x2!8va(! x/4!8va)! x23/4 | x2!8va(! x/4!8va)! x23/4 | %11
 x2!8va(! x/4!8va)! x23/4 | x6 |[M:3/8]!8va(! x4/3!8va)! x5/3 |[M:4/4] z2 [B,DG]2 z2 [A,^CG]2 | %15
 z2 [A,=C_E]2 z2 [B,D]2 | z [D=F=B] z [E_G] z [Fce] z [_A,DF_A] | %17
 z [G,DFG] z [B,=EGB] z [^CGB^c] z [EBc=e] ||[M:4/4] x2[K:bass] x6 | x8 |[K:treble] x8 | x8 | x8 | %23
 x8 | x2 !arpeggio![D_A=B] z z4 | x2 !arpeggio![CG] z z4 | x8 | x8 | x8 | x8 | x8 | %31
 x2 x/"_cresc."!<(! E/4C/4A/E/ z/ D/4B,/4G/D/ z/ C/4A,/4D/[I:staff +1]D,/!<)! | x8 | x8 | x8 | x8 | %36
 x8 | x8 | x8 | x8 | x8 | x7!8va(! x |[I:staff -1] [_d'b'_d''] a/b/ x2!8va)! x4!8va(! | %43
 x!8va)! x7 | x4 x2 x/ [A,_E]/[_B,D]/C/ | x4 x2 z/ F^F/ | G/ z/ e2 d dc z/ G^G/ | %47
 A/ z/ z z/ [Fc][Fc]/ z/ [GB][GB]/ z/ Bc/ | d/ z/ z z2 z4 | x8 | x4 x2 x/ =e3/2 | x8 | %52
 x4 [cg] x x2 | F/F/F/F/ F/F/[FB]/[FB]/ !arpeggio![GB]2 x2 | x/4!8va(! x11/4!8va)! x4[K:bass] x | %55
 x4[K:treble] x2 .g'/ x/ x | x4 [GB]2 [FA]2 | x/!8va(! x9/2!8va)! x3 | x7!8va(! x | %59
 x9/2!8va)! x7/2 | x8 | x/!8va(! x4!8va)! x7/2 | x6!8va(! x2 | x9/2!8va)! x7/2 | x6!8va(! x2 | %65
 x4!8va)! [G,G]/ x/ x x2 | [G,G]/ x/ x x2 F/4E/4C/4A/4 A/4G/4E/4d/4 d/4c/4G/4f/4 f/4e/4c/4 z/4 | %67
 x4 !>![=G,_D]/ x/ x x2 | %68
 [G,_D]/ x/ x x F/4E/4B,/4_A/4 A/4G/4_D/4c/4 c/4B/4G/4f/4 f/4e/4B/4_a/4 a/4g/4_d/4 z/4 | %69
 x/[I:staff +1] [D,D]/4[I:staff -1][Dd]/4 [Dd]/4[^C^c]/4[I:staff +1][D,D]/4[I:staff -1][=C=c]/4 [Cc]/4[=B,=B]/4[I:staff +1][D,D]/4[I:staff -1][_B,_B]/4 [B,B]/4[A,A]/4[I:staff +1][D,D]/4[I:staff -1][A,A]/4 x/[I:staff +1] [D,D]/4[I:staff -1][Dd]/4 [Dd]/4[^C^c]/4[I:staff +1][D,D]/4[I:staff -1][=C=c]/4 [Cc]/4[=B,=B]/4[I:staff +1][D,D]/4[I:staff -1][_B,_B]/4 [B,B]/4[A,A]/4[I:staff +1][D,D]/4[I:staff -1][A,A]/4 | %70
 x31/4!8va(! x/4 | x/!8va)! x15/2 | x31/4!8va(! x/4!8va)! | x8 | x8 | x8 | x8 | x15/2!8va(! x/ | %78
 x5!8va)! x5/4!8va(! x3/4!8va)! x | %79
 x/4!8va(! x5/4!8va)! x3/4!8va(! x!8va)! x!8va(! x3/4!8va)! x5/4!8va(! x3/4!8va)! x | x8 | x8 | %82
 x3!8va(! x113/64!8va)! x131/40 | x161/20 |!8va(! x2!8va)! x17/12!8va(! x17/10!8va)! x293/60 | x8 | %86
 x8 | x8 | !^!D8 | x8 | x2 x x G x2 x/ [EG]/ | [EG]/[DF_A]/ x2 x/ A/ A/G/ x2 x/ E/ | %92
 E/D/ x2 ^C/D/ x ^C/D/ x (5:4:5^C/4D/4E/4=E/4^F/4 | ^F/G/ x2 ^F/G/ x ^F/G/ x2 | x8 | %95
 x4 [ce]2 [Ff]/[Ee]/[Ee]/[Dd]/ | x8 |[K:bass] x6[K:treble] x2 | [_d_d'] x x2 x2 x [EB] | %99
 e z z2 _d2 z2 | c2 x2 B2 x2 | B2 x2 x4 | x2 !arpeggio![G_d] x x4 | x8 | x8 | x8 | x8 | x4 G2 ^F2 | %108
 G2 ^C2 [G,B,]2 G,^F, | x4 z/ B/A/B/ ^F>F | x4 z/ B/A/B/ ^F>F | x8 | x4 G2 ^F2 | %113
 [DG]2 ^C2 [G,B,]2 x2 || x8 | x2 z/ B/G/D/ E2- E/D/E/C/ | D2- D/G/D/E/ F2- F/E/F/D/ | %117
 E2- E/D/E/C/ =A2- A/D/E/C/ | B2 B/D/E/C/ c2 c/G/A/^F/ | %119
 ee/4B/4c/4A/4 ^f-f/4d/4e/4c/4 a-a/4g/4a/4^f/4 c'-c'/4b/4c'/4a/4 | %120
 (5:4:5e'/4!8va(!c'/4^f'/4e'/4a'/4(5:4:5f'/4e'/4c'/4a/4^f/4(5:4:5e/4f/4!8va)!a/4f/4e/4(5:4:5c/4A/4^F/4E/4F/4(5:4:5A/4F/4E/4C/4[I:staff +1]A,/4(5:4:5^F,/4E,/4F,/4A,/4[I:staff -1]C/4(5:4:5E/4F/4A/4c/4e/4 x x2[K:bass] | %121
[K:treble] x2 !arpeggio![CEA]2 !arpeggio![CEA]2 !arpeggio![CEA]2 | x6!8va(! x/4!8va)! x7/4 | %123
 x6!8va(! x/4!8va)! x7/4 | x6!8va(! x/4!8va)! x7/4 | x8 | x8 | x6 | x15/4[K:bass] x17/4 | %129
[K:treble] x/ E/4G/4B/4e/4!8va(!g/4b/4e'/4g'/4 b'/!8va)! x x4 | x8 | x293/40!8va(! x27/40 | %132
 x/!8va)! x273/40!8va(! x2/3!8va)! | x8 | x8 | x8 |] %136
V:5
 x8 | x8 |[M:6/4] x12 |[M:4/4] x8 |[M:5/4] x10 |[M:5/4]!8va(! x10 |[M:4/4] x2!8va)! x6 | x8 | x6 | %9
 x2!8va(! x/4!8va)! x23/4 | x2!8va(! x/4!8va)! x23/4 | x2!8va(! x/4!8va)! x23/4 | x6 | %13
[M:3/8]!8va(! x4/3!8va)! x5/3 |[M:4/4] x8 | x8 | x8 | x8 ||[M:4/4] x2[K:bass] x6 | x8 | %20
[K:treble] x8 | x8 | x8 | x8 | x8 | x8 | x8 | x8 | x8 | x8 | x8 | x4 d4 | x8 | x8 | x8 | x8 | x8 | %37
 x8 | x8 | x8 | x8 | x7!8va(! x | x3!8va)! x4!8va(! x | x!8va)! x7 | x8 | x8 | x8 | x8 | x8 | x8 | %50
 x8 | x8 | x8 | x8 | x/4!8va(! x11/4!8va)! x4[K:bass] x | x2[K:treble] x6 | x8 | %57
 x/!8va(! x9/2!8va)! x3 | x7!8va(! x | x9/2!8va)! x7/2 | x8 | x/!8va(! x4!8va)! x7/2 | %62
 x6!8va(! x2 | x9/2!8va)! x7/2 | x6!8va(! x2 | x/!8va)! x15/2 | x8 | x8 | x8 | x8 | %70
 x31/4!8va(! x/4 | x/!8va)! x15/2 | x31/4!8va(! x/4!8va)! | x8 | x8 | x8 | x8 | x15/2!8va(! x/ | %78
 x5!8va)! x5/4!8va(! x3/4!8va)! x | %79
 x/4!8va(! x5/4!8va)! x3/4!8va(! x!8va)! x!8va(! x3/4!8va)! x5/4!8va(! x3/4!8va)! x | x8 | x8 | %82
 x3!8va(! x113/64!8va)! x131/40 | x161/20 |!8va(! x2!8va)! x17/12!8va(! x17/10!8va)! x293/60 | x8 | %86
 x8 | x8 | x8 | x8 | x8 | x8 | x8 | x8 | x8 | x8 | x8 |[K:bass] x6[K:treble] x2 | x8 | x8 | x8 | %101
 x8 | x8 | x8 | x8 | x8 | x8 | x8 | x8 | x8 | x8 | x8 | x8 | x8 || x8 | x8 | x8 | x8 | x8 | x8 | %120
 x/5!8va(! x11/5!8va)! x6[K:bass] x8/5 |[K:treble] x8 | x6!8va(! x/4!8va)! x7/4 | %123
 x6!8va(! x/4!8va)! x7/4 | x6!8va(! x/4!8va)! x7/4 | x8 | x8 | x6 | x15/4[K:bass] x17/4 | %129
[K:treble] x3/2!8va(! x3/2!8va)! x5 | x8 | x293/40!8va(! x27/40 | %132
 x/!8va)! x273/40!8va(! x2/3!8va)! | x8 | x8 | x8 |] %136
V:6
 x8 | x8 |[M:6/4] x12 |[M:4/4] x8 |[M:5/4] x10 |[M:5/4] x10 |[M:4/4] x8 | x8 | x6 | x8 | x8 | x8 | %12
 x6 |[M:3/8] x3 |[M:4/4] x8 | x8 | x8 | x8 ||[M:4/4] x2!8vb(! x6 | x8!8vb)! | x8 | x8 | x8 | x8 | %24
 x8 | x8 | x8 | x/[K:treble] x7/2[K:bass] x/[K:treble] x7/2 | %28
[K:bass] x/[K:treble] x7/2[K:bass] x/[K:treble] x7/2 |[K:bass] x8 | x8 | x8 | x8 | x8 | x8 | x8 | %36
 x8 | x5/2[K:treble] x4[K:bass] x3/2 | x8 | x6[K:treble] x2 | x3/2[K:bass] x9/2[K:treble] x2 | %41
[K:bass] x7[K:treble] x | x2[K:bass] x5[K:treble] x | x3[K:bass] x5 | x8 | x8 | x8 | x8 | x8 | x8 | %50
 x3[K:treble] x5 | x8 | x4[K:bass] x4 | x8 |[K:treble] x8 | x5[K:bass] x3 | x8 | x4[K:treble] x4 | %58
[K:bass] x4[K:treble] x4 |[K:bass] x8 | x8 | x4[K:treble] x4 |[K:bass] x4[K:treble] x4 | %63
[K:bass] x4[K:treble] x4 |[K:bass] x4[K:treble] x4 |[K:bass] x8 | x8 | x8 | x8 | x8 | %70
 x3/2[K:treble] x13/2 |[K:bass] x/[K:treble] x7/2[K:bass] x/[K:treble] x7/2 | %72
[K:bass] x/[K:treble] x15/2 |[K:bass] x8 | x8 | x8 | x8 | x8 | x3[K:treble] x3[K:bass] x2 | x8 | %80
 x8 | x37/8[K:treble] x7/8[K:bass] x5/2 | x3[K:treble] x5/2[K:bass] x5/2 | x161/20 | x10 | x8 | %86
 x8 | x8 | x8 | x8 | x8 | x8 | x8 | x8 | x8 | x8 | x8 | x7[K:treble] x | x2[K:bass] x6 | %99
[K:treble] x8 | x8 | x8 | x8 | x4[K:bass] x4 | x8 | x8 | x8 | x8 | x8 | [G,,,G,,]4 x4 | %110
 [G,,,G,,]4 x4 | [G,,,G,,]8 | x8 | x8 || x8 | x8 | x8 | x8 | x8 | x8 | x10 | x8 | x8 | x8 | x8 | %125
 x8 | x8 | x6 | x8 | x8 | x8 | x293/40!8va(! x27/40!8va)! | x293/40!8va(! x2/3!8va)! | x8 | x8 | %135
 x8 |] %136

